X: 33417
T: Quilty, The
R: hornpipe
M: 4/4
K: Cdorian
K: BbMaj
|:F|D2 FB d2 cd|edcB G2 FE|D2 FB dBFB|cdBG FGEC|
D2 FB d2 cd|e2 cA F2 FE|DFBd cBAc|B2 F2 B,3:|
|:c|dBAB GBFB|DBFB dBAB|gBfB edcB|Gcc=B Gcce|
dBAB G2 FB|DBFB d2 AB|g2 fB eBdB|cAFA B3:|

